X: 530
T: Dry and Dusty
B: jims roots
M:C|
L:1/8
Q: 1/4=100
K:D
V:1 
%R:Reel
%S:Chirps Smith
|:AB | "D"d2 [df]d edBA | [d2f2] +slide+[d2f2] edBA | d2[df]d edBA | [A2f2] ([A2a2]"A"[A2a2])AB |
"D"d2 [df]d edBA | [df]e[df]d edBA | d2((3BcB "A"A)GFG | "D"A2 (D2D2):|
|:dB | "D"A2FD EDDE | F2(A2 A2)AB | A2FD EDDE | "A"F2(E2 E2)dB |
"D"A2)FD EDDE | F2(A2 A2)Bc | d2)((3BcB "A"A)GFG | "D"A2 D2-D2 :|]
% abcbook-tune_id 6298c24545abae17549e0df0


% abcbook-boost 0
% abcbook-tablature 
% abcbook-transpose 
% abcbook-lastupdated 1654178374056
% abcbook-soundfonts 
% abcbook-repeats 1


